lib/brands/icons/google-nearby.svg

<svg xmlns="http://www.w3.org/2000/svg" fill="none" aria-hidden="true" viewBox="0 0 48 48"><g id="google-nearby-Icon"><g id="Group"><circle id="Ellipse" cx="24" cy="24" r="18" fill="#2E8DF7"/><path id="Vector" fill="#FFF8FF" d="M37.1073 21.8435L26.1565 10.8927C24.9662 9.70243 23.0338 9.70243 21.8435 10.8927L10.8927 21.8435C9.70243 23.0338 9.70243 24.9662 10.8927 26.1565L21.8435 37.1073C23.0338 38.2976 24.9662 38.2976 26.1565 37.1073L37.1073 26.1565C38.2976 24.9662 38.2976 23.0338 37.1073 21.8435ZM24 33.8024L14.1975 24L24 14.1975L33.8024 24L24 33.8024ZM30.3016 24L24 30.3016L17.6984 24L24 17.6984L30.3016 24Z"/></g></g></svg>

<svg xmlns="http://www.w3.org/2000/svg" fill="none" aria-hidden="true" viewBox="0 0 48 48"><circle cx="24" cy="24" r="18" fill="#2E8DF7"/><path fill="#FFF8FF" d="m37.107 21.843-10.95-10.95a3.051 3.051 0 0 0-4.314 0l-10.95 10.95a3.051 3.051 0 0 0 0 4.314l10.95 10.95a3.051 3.051 0 0 0 4.314 0l10.95-10.95a3.051 3.051 0 0 0 0-4.314ZM24 33.803 14.197 24 24 14.197 33.802 24 24 33.802ZM30.302 24 24 30.302 17.698 24 24 17.698 30.302 24Z"/></svg>
